src/pos-icons/camera-retake-outline.svg

<svg height="24" viewBox="0 0 24 24" width="24" xmlns="http://www.w3.org/2000/svg"><path d="m20 5h-3.17l-1.83-2h-6l-1.83 2h-3.17a2 2 0 0 0 -2 2v12a2 2 0 0 0 2 2h16a2 2 0 0 0 2-2v-12a2 2 0 0 0 -2-2m0 14h-16v-12h4.05l1.83-2h4.24l1.88 2h4zm-8-1c-1.08 0-2.14-.35-3-1l1.44-1.44c.47.29 1.01.44 1.56.44a3 3 0 0 0 3-3 3 3 0 0 0 -3-3c-1.26 0-2.4.8-2.82 2h1.82l-3 3-3-3h2.1c.55-2.71 3.19-4.45 5.9-3.9 2.7.55 4.45 3.19 3.9 5.9-.48 2.33-2.52 4-4.9 4z"/></svg>

<?xml version="1.0" encoding="UTF-8"?><!DOCTYPE svg PUBLIC "-//W3C//DTD SVG 1.1//EN" "http://www.w3.org/Graphics/SVG/1.1/DTD/svg11.dtd"><svg xmlns="http://www.w3.org/2000/svg" xmlns:xlink="http://www.w3.org/1999/xlink" version="1.1" id="mdi-camera-retake-outline" width="24" height="24" viewBox="0 0 24 24"><path d="M20,5H16.83L15,3H9L7.17,5H4A2,2 0 0,0 2,7V19A2,2 0 0,0 4,21H20A2,2 0 0,0 22,19V7A2,2 0 0,0 20,5M20,19H4V7H8.05L9.88,5H14.12L16,7H20V19M12,18C10.92,18 9.86,17.65 9,17L10.44,15.56C10.91,15.85 11.45,16 12,16A3,3 0 0,0 15,13A3,3 0 0,0 12,10C10.74,10 9.6,10.8 9.18,12H11L8,15L5,12H7.1C7.65,9.29 10.29,7.55 13,8.1C15.7,8.65 17.45,11.29 16.9,14C16.42,16.33 14.38,18 12,18Z" /></svg>
